lib/brands/icons/apple-facetime.svg

<svg xmlns="http://www.w3.org/2000/svg" fill="none" aria-hidden="true" viewBox="0 0 48 48"><g id="apple-facetime-Icon"><g id="Group"><path id="bg" fill="url(#paint0_linear_94_17151)" d="M6 18.8C6 14.3196 6 12.0794 6.87195 10.3681C7.63893 8.86278 8.86278 7.63893 10.3681 6.87195C12.0794 6 14.3196 6 18.8 6H29.2C33.6804 6 35.9206 6 37.6319 6.87195C39.1372 7.63893 40.3611 8.86278 41.1281 10.3681C42 12.0794 42 14.3196 42 18.8V29.2C42 33.6804 42 35.9206 41.1281 37.6319C40.3611 39.1372 39.1372 40.3611 37.6319 41.1281C35.9206 42 33.6804 42 29.2 42H18.8C14.3196 42 12.0794 42 10.3681 41.1281C8.86278 40.3611 7.63893 39.1372 6.87195 37.6319C6 35.9206 6 33.6804 6 29.2V18.8Z"/><g id="camera"><path fill="white" d="M11.543 18.2297C11.1426 18.9914 11.1426 19.9884 11.1426 21.9824V26.0176C11.1426 28.0116 11.1426 29.0086 11.543 29.7702C11.8952 30.4402 12.4571 30.9849 13.1483 31.3262C13.9341 31.7143 14.9628 31.7143 17.0201 31.7143H23.2242C25.2815 31.7143 26.3102 31.7143 27.096 31.3262C27.7872 30.9849 28.3492 30.4402 28.7014 29.7702C29.1018 29.0086 29.1018 28.0116 29.1018 26.0176V21.9824C29.1018 19.9884 29.1018 18.9914 28.7014 18.2297C28.3492 17.5598 27.7872 17.0151 27.096 16.6738C26.3102 16.2857 25.2815 16.2857 23.2242 16.2857H17.0201C14.9628 16.2857 13.9341 16.2857 13.1483 16.6738C12.4571 17.0151 11.8952 17.5598 11.543 18.2297Z"/><path fill="white" d="M30.5019 20.6575L34.5106 17.4007C35.4403 16.6454 36.8569 17.286 36.8569 18.4618V29.5715C36.8569 30.7417 35.4521 31.3842 34.5201 30.6403L30.5129 27.4418C30.1363 27.1412 29.9181 26.6931 29.9181 26.2202V21.8702C29.9181 21.4022 30.1319 20.9582 30.5019 20.6575Z"/></g></g></g><defs><linearGradient id="paint0_linear_94_17151" x1="24" x2="24" y1="6" y2="42" gradientUnits="userSpaceOnUse"><stop stop-color="#61F677"/><stop offset="1" stop-color="#10BC2B"/></linearGradient></defs></svg>

<svg xmlns="http://www.w3.org/2000/svg" fill="none" aria-hidden="true" viewBox="0 0 48 48"><path fill="url(#a)" d="M6 18.8c0-4.48 0-6.72.872-8.432a8 8 0 0 1 3.496-3.496C12.08 6 14.32 6 18.8 6h10.4c4.48 0 6.72 0 8.432.872a8 8 0 0 1 3.496 3.496C42 12.08 42 14.32 42 18.8v10.4c0 4.48 0 6.72-.872 8.432a8 8 0 0 1-3.496 3.496C35.92 42 33.68 42 29.2 42H18.8c-4.48 0-6.72 0-8.432-.872a8 8 0 0 1-3.496-3.496C6 35.92 6 33.68 6 29.2V18.8Z"/><path fill="#fff" d="M11.543 18.23c-.4.761-.4 1.758-.4 3.752v4.036c0 1.994 0 2.99.4 3.752.352.67.914 1.215 1.606 1.556.785.388 1.814.388 3.871.388h6.204c2.058 0 3.087 0 3.872-.388a3.618 3.618 0 0 0 1.606-1.556c.4-.761.4-1.758.4-3.752v-4.036c0-1.994 0-2.99-.4-3.752a3.619 3.619 0 0 0-1.606-1.556c-.785-.388-1.814-.388-3.872-.388H17.02c-2.057 0-3.086 0-3.871.388a3.619 3.619 0 0 0-1.606 1.556Zm18.959 2.427 4.009-3.256c.93-.756 2.346-.115 2.346 1.06v11.11c0 1.17-1.405 1.813-2.337 1.07l-4.007-3.2a1.564 1.564 0 0 1-.595-1.22v-4.35c0-.469.214-.913.584-1.213Z"/><defs><linearGradient id="a" x1="24" x2="24" y1="6" y2="42" gradientUnits="userSpaceOnUse"><stop stop-color="#61F677"/><stop offset="1" stop-color="#10BC2B"/></linearGradient></defs></svg>
